src/icons/SVG/24px/Payment_Cards_Monochrome_OneyX4_24px.svg

<svg width="24" height="24" viewBox="0 0 24 24" fill="none" xmlns="http://www.w3.org/2000/svg">
  <g id="Square"> </g>
  <g id="Icon">
<path id="Subtract" fill-rule="evenodd" clip-rule="evenodd" d="M19.299 11.8763C19.299 15.9757 15.9757 19.299 11.8763 19.299C7.77686 19.299 4.45361 15.9757 4.45361 11.8763C4.45361 7.77686 7.77686 4.45361 11.8763 4.45361C15.9757 4.45361 19.299 7.77686 19.299 11.8763ZM11.2847 14.1102H10.2251V13.0577H8.06968V12.1638L9.31677 9.10016H10.4918L9.28073 12.099H10.2251V11.0177H11.2847V12.099H11.8182V13.0577H11.2847V14.1102ZM16.0532 10.2828L14.7567 12.0914L16.0309 14.004H14.7641L14.1035 13.0143L13.5022 14.004H12.2899L13.527 12.1533L12.2899 10.2828H13.5591L14.2024 11.2527L14.8556 10.2828H16.0532Z" fill="black"/>
</g>
</svg>

<svg xmlns="http://www.w3.org/2000/svg" viewBox="0 0 24 24">
  <g id="Square"> </g>
  <path fill-rule="evenodd" d="M19.299 11.876a7.423 7.423 0 11-14.846 0 7.423 7.423 0 0114.846 0zm-8.014 2.234h-1.06v-1.052H8.07v-.894L9.317 9.1h1.175L9.28 12.1h.944v-1.081h1.06v1.081h.533v.959h-.533v1.052zm4.768-3.827l-1.296 1.808 1.274 1.913h-1.267l-.66-.99-.602.99H12.29l1.237-1.85-1.237-1.871h1.27l.642.97.654-.97h1.197z"/>
</svg>
